svgs/duotone/universal-access.svg

<svg xmlns="http://www.w3.org/2000/svg" viewBox="0 0 512 512"><!--! Font Awesome Pro 6.3.0 by @fontawesome - https://fontawesome.com License - https://fontawesome.com/license (Commercial License) Copyright 2023 Fonticons, Inc. --><defs><style>.fa-secondary{opacity:.4}</style></defs><path class="fa-primary" d="M256 160c22.09 0 40-17.91 40-40S278.1 80 256 80S216 97.91 216 120S233.9 160 256 160zM391.1 185.4c-3.656-12.75-16.97-20.25-29.67-16.47l-59.25 16.94c-30.17 8.623-62.15 8.623-92.31 0L150.6 168.9C137.9 165.2 124.6 172.7 120.9 185.4s3.734 26.03 16.48 29.66l59.25 16.97C200.4 233.1 204.2 233.6 208 234.4v62.29l-30.64 87.34c-4.391 12.5 2.188 26.19 14.69 30.59C194.7 415.6 197.4 416 200 416c9.906 0 19.19-6.188 22.64-16.06l25.85-70.65c2.562-7.002 12.46-7.002 15.03 0l25.85 70.65C292.8 409.8 302.1 416 312 416c2.641 0 5.312-.4375 7.953-1.344c12.5-4.406 19.08-18.09 14.69-30.59L304 296.7V234.4C307.8 233.6 311.6 233.1 315.3 232l59.25-16.94C387.3 211.4 394.7 198.2 391.1 185.4z"/><path class="fa-secondary" d="M256 0C114.6 0 0 114.6 0 256c0 141.4 114.6 256 256 256s256-114.6 256-256C512 114.6 397.4 0 256 0zM256 80c22.09 0 40 17.91 40 40S278.1 160 256 160S216 142.1 216 120S233.9 80 256 80zM374.6 215.1L315.3 232C311.6 233.1 307.8 233.6 304 234.4v62.32l30.64 87.34c4.391 12.5-2.188 26.19-14.69 30.59C317.3 415.6 314.6 416 312 416c-9.906 0-19.19-6.188-22.64-16.06l-25.85-70.65c-2.562-7.002-12.46-7.002-15.03 0l-25.85 70.65C219.2 409.8 209.9 416 200 416c-2.641 0-5.312-.4375-7.953-1.344c-12.5-4.406-19.08-18.09-14.69-30.59L208 296.7V234.4C204.2 233.6 200.4 233.1 196.7 232L137.4 215.1C124.7 211.4 117.3 198.2 120.9 185.4S137.9 165.2 150.6 168.9l59.25 16.94c30.17 8.623 62.15 8.623 92.31 0l59.25-16.94c12.7-3.781 26.02 3.719 29.67 16.47C394.7 198.2 387.3 211.4 374.6 215.1z"/></svg>

<svg xmlns="http://www.w3.org/2000/svg" viewBox="0 0 512 512"><!-- Font Awesome Pro 6.0.0-alpha2 by @fontawesome - https://fontawesome.com License - https://fontawesome.com/license (Commercial License) --><defs><style>.fa-secondary{opacity:.4}</style></defs><path d="M256 16C123.42 16 16 123.418 16 256C16 388.58 123.42 496 256 496S496 388.58 496 256C496 123.418 388.58 16 256 16ZM256 80C278.092 80 296 97.908 296 120S278.092 160 256 160S216 142.092 216 120S233.908 80 256 80ZM374.594 215.062L315.344 232C311.607 233.072 307.783 233.615 304 234.402V296.719L334.641 384.062C339.031 396.562 332.453 410.25 319.953 414.656C317.312 415.562 314.641 416 312 416C302.094 416 292.812 409.812 289.359 399.938L263.514 329.287C260.951 322.285 251.049 322.285 248.486 329.287L222.641 399.938C219.188 409.812 209.906 416 200 416C197.359 416 194.688 415.562 192.047 414.656C179.547 410.25 172.969 396.562 177.359 384.062L208 296.719V234.424C204.215 233.637 200.395 233.096 196.656 232.031L137.406 215.062C124.656 211.438 117.281 198.156 120.922 185.406S137.891 165.188 150.594 168.938L209.844 185.875C240.01 194.498 271.99 194.498 302.156 185.875L361.406 168.938C374.109 165.156 387.422 172.656 391.078 185.406C394.719 198.156 387.344 211.438 374.594 215.062Z" class="fa-secondary"/><path d="M256.008 160C278.1 160 296.008 142.092 296.008 120S278.1 80 256.008 80S216.008 97.908 216.008 120S233.916 160 256.008 160ZM391.086 185.406C387.43 172.656 374.117 165.156 361.414 168.938L302.164 185.875C271.998 194.498 240.018 194.498 209.852 185.875L150.602 168.938C137.898 165.188 124.57 172.656 120.93 185.406S124.664 211.438 137.414 215.062L196.664 232.031C200.402 233.096 204.223 233.637 208.008 234.424V296.719L177.367 384.062C172.977 396.562 179.555 410.25 192.055 414.656C194.695 415.562 197.367 416 200.008 416C209.914 416 219.195 409.812 222.648 399.938L248.494 329.287C251.057 322.285 260.959 322.285 263.521 329.287L289.367 399.938C292.82 409.812 302.102 416 312.008 416C314.648 416 317.32 415.562 319.961 414.656C332.461 410.25 339.039 396.562 334.648 384.062L304.008 296.719V234.402C307.791 233.615 311.615 233.072 315.352 232L374.602 215.062C387.352 211.438 394.727 198.156 391.086 185.406Z" class="fa-primary"/></svg>
